X:1
T:Back to Oh Susanna
L:1/8
Q:1/4=110
M:2/4
K:D
"G""^Back to Oh Susanna" Bd d>e |"Em" dB GA |"C" BB AG |"D" A3 G/A/ |"G" Bd d>e |"Em" dB GA |"C" BB"D7" AA |"G" G4 |]
